!!!OTL: Graf und Nonne (Die Nonne) Ich stand auf hohem Berge
!!!ARE: Europa, Mitteleuropa, Deutschland (BRD), Nordrhein - Westfalen, Muenster
!!!YOR: 8, S. 291
!!    1917 aufgezeichnet
!!!SCT: Q0155N.
!!!YEM: Copyright 1995, estate of Helmut Schaffrath.
**kern
*ICvox
*Ivox
*M6/8
*k[f#]
*G:
{8d
=1
4g
8d
8B
8d
8b
=2
8b
8a
4.r}
{8d
=3
8d
8f#
8a
8ee
8dd
8cc
=4
4.b
4r}
{16g
16b
=5
4dd
8dd
8dd
8cc
8b
=6
8cc
8a
8d
8e
8d}
{8d
=7
8d
8f#
8a
8ee
8dd
8cc
=8
4b
4.r}
==
!!!AGN: Ballade, Standesunterschied, vergebliche Werbung, Liebe, Klage
!! Anhaengsel an der dritten Zeile.
!!!ONB: ESAC (Essen Associative Code) Database: BALLADE
!!!AMT: compound duple
!!!AIN: vox
!!!EED: Helmut Schaffrath
!!!EEV: 1.0
*-
